X:1
T: Magic Flute
C:
R:Reel
Q: 232
K:F
M:4/4
L:1/8
|:cB|A2 f2 af cA|BB dg b2 BA|G2 e2 ge ce|fa fa fd cB|
A2 cf af cA|B2 dg bg dB|Ac f2 GB e2|f2 a2 f2:|
|:c2|AF AF AF Ad|c2 B4 B2|GE AE GE Gc|B2 A4 AB|
cA FC FA cA|Bc de fd cB|Ac f2 GB e2|f2 a2 f2:|
